X: 42629
T: Whiskey And Water
R: jig
M: 6/8
K: Dmixolydian
B2A G3|GBA ~G3|B2A G2A|B2A BGE|
B2A ~G3|GBA G2E|~F3 d2B|{f}e2B AFD:|
B2e {f}e2d|efd e3|B2e e2f|g2e fdB|
[1B2^c d2B|e2^c d3|B2^c d2e|f2e dBA:|
[2B2^c d2=c|B2AG3|~F3 d2B|e2B AFD||

